public/images/icons/database.svg

<svg xmlns="http://www.w3.org/2000/svg" width="32" height="32" fill="none"><path fill="#9394a0" fill-opacity=".15" d="M28.25 27.173c0 2.252-5.485 4.077-12.25 4.077S3.75 29.425 3.75 27.173V4.827c0 2.252 5.485 4.077 12.25 4.077s12.25-1.825 12.25-4.077z"/><path stroke="#9394a0" stroke-linecap="round" stroke-linejoin="round" stroke-width="1.5" d="M28.25 16c0 2.252-5.485 4.077-12.25 4.077S3.75 18.252 3.75 16m24.5 0v11.173c0 2.252-5.485 4.077-12.25 4.077S3.75 29.425 3.75 27.173V16m24.5 0V4.827M3.75 16V4.827m24.5 0c0 2.252-5.485 4.077-12.25 4.077S3.75 7.079 3.75 4.827m24.5 0C28.25 2.575 22.765.75 16 .75S3.75 2.575 3.75 4.827"/></svg>

<svg width="32" height="32" viewBox="0 0 32 32" fill="none" xmlns="http://www.w3.org/2000/svg">
<path d="M28.25 27.173C28.25 29.425 22.765 31.25 16 31.25C9.235 31.25 3.75 29.425 3.75 27.173V4.827C3.75 7.079 9.235 8.904 16 8.904C22.765 8.904 28.25 7.079 28.25 4.827V27.173Z" fill="#9394A0" fill-opacity="0.15"/>
<path d="M28.25 16C28.25 18.252 22.765 20.077 16 20.077C9.235 20.077 3.75 18.252 3.75 16M28.25 16V27.173C28.25 29.425 22.765 31.25 16 31.25C9.235 31.25 3.75 29.425 3.75 27.173V16M28.25 16V4.827M3.75 16V4.827M28.25 4.827C28.25 7.079 22.765 8.904 16 8.904C9.235 8.904 3.75 7.079 3.75 4.827M28.25 4.827C28.25 2.575 22.765 0.75 16 0.75C9.235 0.75 3.75 2.575 3.75 4.827" stroke="#9394A0" stroke-width="1.5" stroke-linecap="round" stroke-linejoin="round"/>
</svg>
